modules/stroke-7/icons/portfolio.svg

<?xml version="1.0" encoding="utf-8"?>
<!-- Generated by IcoMoon.io -->
<!DOCTYPE svg PUBLIC "-//W3C//DTD SVG 1.1//EN" "http://www.w3.org/Graphics/SVG/1.1/DTD/svg11.dtd">
<svg version="1.1" xmlns="http://www.w3.org/2000/svg" xmlns:xlink="http://www.w3.org/1999/xlink" width="32" height="32" viewBox="0 0 32 32">
<g id="icomoon-ignore">
</g>
<path d="M19.732 7.203v-2.666h-7.464v2.666h-9.063v20.259h25.59v-20.259h-9.063zM13.334 5.604h5.331v1.599h-5.331v-1.599zM12.268 8.27h15.461v8.53h-7.997v-2.133h-7.464v2.133h-7.997v-8.53h7.997zM18.666 15.733v3.199h-5.331v-3.199h5.331zM4.271 26.396v-8.53h7.997v2.133h7.464v-2.133h7.997v8.53h-23.457z" fill="#000000"></path>
</svg>

<svg xmlns="http://www.w3.org/2000/svg" width="32" height="32"><path d="M19.732 7.203V4.537h-7.464v2.666H3.205v20.259h25.59V7.203h-9.063zm-6.398-1.599h5.331v1.599h-5.331V5.604zM12.268 8.27h15.461v8.53h-7.997v-2.133h-7.464V16.8H4.271V8.27h7.997zm6.398 7.463v3.199h-5.331v-3.199h5.331zM4.271 26.396v-8.53h7.997v2.133h7.464v-2.133h7.997v8.53H4.272z"/></svg>
